images/50455546.svg

<?xml version="1.0" encoding="UTF-8"?>
<svg xmlns="http://www.w3.org/2000/svg" xmlns:xlink="http://www.w3.org/1999/xlink" width="300pt" height="300pt" viewBox="0 0 300 300" version="1.1">
<defs>
<g>
<symbol overflow="visible" id="glyph0-0">
<path style="stroke:none;" d="M 0.453125 1.59375 L 0.453125 -6.34375 L 4.953125 -6.34375 L 4.953125 1.59375 Z M 0.953125 1.09375 L 4.453125 1.09375 L 4.453125 -5.84375 L 0.953125 -5.84375 Z M 0.953125 1.09375 "/>
</symbol>
<symbol overflow="visible" id="glyph0-1">
<path style="stroke:none;" d="M 3.546875 -5.953125 C 2.898438 -5.953125 2.382812 -5.710938 2 -5.234375 C 1.625 -4.753906 1.4375 -4.101562 1.4375 -3.28125 C 1.4375 -2.445312 1.625 -1.789062 2 -1.3125 C 2.382812 -0.832031 2.898438 -0.59375 3.546875 -0.59375 C 4.191406 -0.59375 4.703125 -0.832031 5.078125 -1.3125 C 5.453125 -1.789062 5.640625 -2.445312 5.640625 -3.28125 C 5.640625 -4.101562 5.453125 -4.753906 5.078125 -5.234375 C 4.703125 -5.710938 4.191406 -5.953125 3.546875 -5.953125 Z M 3.546875 -6.6875 C 4.460938 -6.6875 5.195312 -6.375 5.75 -5.75 C 6.300781 -5.132812 6.578125 -4.3125 6.578125 -3.28125 C 6.578125 -2.238281 6.300781 -1.410156 5.75 -0.796875 C 5.195312 -0.179688 4.460938 0.125 3.546875 0.125 C 2.617188 0.125 1.878906 -0.179688 1.328125 -0.796875 C 0.773438 -1.410156 0.5 -2.238281 0.5 -3.28125 C 0.5 -4.3125 0.773438 -5.132812 1.328125 -5.75 C 1.878906 -6.375 2.617188 -6.6875 3.546875 -6.6875 Z M 3.546875 -6.6875 "/>
</symbol>
<symbol overflow="visible" id="glyph0-2">
<path style="stroke:none;" d="M 0.890625 -6.5625 L 2.078125 -6.5625 L 4.984375 -1.078125 L 4.984375 -6.5625 L 5.84375 -6.5625 L 5.84375 0 L 4.65625 0 L 1.75 -5.484375 L 1.75 0 L 0.890625 0 Z M 0.890625 -6.5625 "/>
</symbol>
<symbol overflow="visible" id="glyph0-3">
<path style="stroke:none;" d="M 0.890625 -6.5625 L 1.765625 -6.5625 L 1.765625 -3.875 L 5 -3.875 L 5 -6.5625 L 5.890625 -6.5625 L 5.890625 0 L 5 0 L 5 -3.125 L 1.765625 -3.125 L 1.765625 0 L 0.890625 0 Z M 0.890625 -6.5625 "/>
</symbol>
</g>
</defs>
<g id="surface8425">
<rect x="0" y="0" width="300" height="300" style="fill:rgb(100%,100%,100%);fill-opacity:1;stroke:none;"/>
<path style="fill:none;stroke-width:1.2;stroke-linecap:butt;stroke-linejoin:miter;stroke:rgb(100%,0%,0%);stroke-opacity:1;stroke-miterlimit:10;" d="M 77.910156 150.519531 L 71.90625 143.222656 "/>
<path style="fill:none;stroke-width:1.2;stroke-linecap:butt;stroke-linejoin:miter;stroke:rgb(0%,0%,0%);stroke-opacity:1;stroke-miterlimit:10;" d="M 71.90625 143.222656 L 65.902344 135.925781 "/>
<path style="fill:none;stroke-width:1.2;stroke-linecap:butt;stroke-linejoin:miter;stroke:rgb(100%,0%,0%);stroke-opacity:1;stroke-miterlimit:10;" d="M 77.910156 150.519531 L 87.230469 148.964844 "/>
<path style="fill:none;stroke-width:1.2;stroke-linecap:butt;stroke-linejoin:miter;stroke:rgb(0%,0%,0%);stroke-opacity:1;stroke-miterlimit:10;" d="M 87.230469 148.964844 L 96.554688 147.414062 "/>
<path style=" stroke:none;fill-rule:nonzero;fill:rgb(100%,100%,100%);fill-opacity:1;" d="M 73.910156 145.019531 L 81.910156 145.019531 L 81.910156 156.019531 L 73.910156 156.019531 Z M 73.910156 145.019531 "/>
<g style="fill:rgb(100%,0%,0%);fill-opacity:1;">
  <use xlink:href="#glyph0-1" x="73.910156" y="153.682617"/>
</g>
<path style="fill:none;stroke-width:1.2;stroke-linecap:butt;stroke-linejoin:miter;stroke:rgb(0%,0%,0%);stroke-opacity:1;stroke-miterlimit:10;" d="M 65.902344 135.925781 L 47.257812 139.027344 "/>
<path style="fill:none;stroke-width:1.2;stroke-linecap:butt;stroke-linejoin:miter;stroke:rgb(0%,0%,0%);stroke-opacity:1;stroke-miterlimit:10;" d="M 47.257812 139.027344 L 35.25 124.4375 "/>
<path style="fill:none;stroke-width:1.2;stroke-linecap:butt;stroke-linejoin:miter;stroke:rgb(0%,0%,0%);stroke-opacity:1;stroke-miterlimit:10;" d="M 96.554688 147.414062 L 103.1875 129.71875 "/>
<path style="fill:none;stroke-width:1.2;stroke-linecap:butt;stroke-linejoin:miter;stroke:rgb(0%,0%,0%);stroke-opacity:1;stroke-miterlimit:10;" d="M 101.378906 147.207031 L 106.6875 133.046875 "/>
<path style="fill:none;stroke-width:1.2;stroke-linecap:butt;stroke-linejoin:miter;stroke:rgb(0%,0%,0%);stroke-opacity:1;stroke-miterlimit:10;" d="M 108.5625 162.007812 L 96.554688 147.414062 "/>
<path style="fill:none;stroke-width:1.2;stroke-linecap:butt;stroke-linejoin:miter;stroke:rgb(0%,0%,0%);stroke-opacity:1;stroke-miterlimit:10;" d="M 103.1875 129.71875 L 112.507812 128.164062 "/>
<path style="fill:none;stroke-width:1.2;stroke-linecap:butt;stroke-linejoin:miter;stroke:rgb(0%,0%,100%);stroke-opacity:1;stroke-miterlimit:10;" d="M 112.507812 128.164062 L 121.828125 126.613281 "/>
<path style="fill:none;stroke-width:1.2;stroke-linecap:butt;stroke-linejoin:miter;stroke:rgb(0%,0%,100%);stroke-opacity:1;stroke-miterlimit:10;" d="M 121.828125 126.613281 L 127.835938 133.910156 "/>
<path style="fill:none;stroke-width:1.2;stroke-linecap:butt;stroke-linejoin:miter;stroke:rgb(0%,0%,0%);stroke-opacity:1;stroke-miterlimit:10;" d="M 127.835938 133.910156 L 133.839844 141.207031 "/>
<path style="fill:none;stroke-width:1.2;stroke-linecap:butt;stroke-linejoin:miter;stroke:rgb(0%,0%,100%);stroke-opacity:1;stroke-miterlimit:10;" d="M 119.597656 130.898438 L 124.398438 136.734375 "/>
<path style="fill:none;stroke-width:1.2;stroke-linecap:butt;stroke-linejoin:miter;stroke:rgb(0%,0%,0%);stroke-opacity:1;stroke-miterlimit:10;" d="M 124.398438 136.734375 L 129.203125 142.574219 "/>
<path style=" stroke:none;fill-rule:nonzero;fill:rgb(100%,100%,100%);fill-opacity:1;" d="M 118.828125 121.113281 L 125.828125 121.113281 L 125.828125 132.113281 L 118.828125 132.113281 Z M 118.828125 121.113281 "/>
<g style="fill:rgb(0%,0%,100%);fill-opacity:1;">
  <use xlink:href="#glyph0-2" x="118.828125" y="129.776367"/>
</g>
<path style="fill:none;stroke-width:1.2;stroke-linecap:butt;stroke-linejoin:miter;stroke:rgb(0%,0%,0%);stroke-opacity:1;stroke-miterlimit:10;" d="M 133.839844 141.207031 L 127.207031 158.902344 "/>
<path style="fill:none;stroke-width:1.2;stroke-linecap:butt;stroke-linejoin:miter;stroke:rgb(0%,0%,0%);stroke-opacity:1;stroke-miterlimit:10;" d="M 133.839844 141.207031 L 152.480469 138.101562 "/>
<path style="fill:none;stroke-width:1.2;stroke-linecap:butt;stroke-linejoin:miter;stroke:rgb(0%,0%,0%);stroke-opacity:1;stroke-miterlimit:10;" d="M 127.207031 158.902344 L 108.5625 162.007812 "/>
<path style="fill:none;stroke-width:1.2;stroke-linecap:butt;stroke-linejoin:miter;stroke:rgb(0%,0%,0%);stroke-opacity:1;stroke-miterlimit:10;" d="M 124.609375 154.828125 L 109.695312 157.3125 "/>
<path style="fill:none;stroke-width:1.2;stroke-linecap:butt;stroke-linejoin:miter;stroke:rgb(0%,0%,0%);stroke-opacity:1;stroke-miterlimit:10;" d="M 108.5625 162.007812 L 105.246094 170.855469 "/>
<path style="fill:none;stroke-width:1.2;stroke-linecap:butt;stroke-linejoin:miter;stroke:rgb(100%,0%,0%);stroke-opacity:1;stroke-miterlimit:10;" d="M 105.246094 170.855469 L 101.929688 179.703125 "/>
<path style=" stroke:none;fill-rule:nonzero;fill:rgb(100%,100%,100%);fill-opacity:1;" d="M 86.929688 174.203125 L 101.929688 174.203125 L 101.929688 185.203125 L 86.929688 185.203125 Z M 86.929688 174.203125 "/>
<g style="fill:rgb(100%,0%,0%);fill-opacity:1;">
  <use xlink:href="#glyph0-3" x="86.929688" y="182.866211"/>
  <use xlink:href="#glyph0-1" x="93.944336" y="182.866211"/>
</g>
<path style="fill:none;stroke-width:1.2;stroke-linecap:butt;stroke-linejoin:miter;stroke:rgb(0%,0%,0%);stroke-opacity:1;stroke-miterlimit:10;" d="M 152.480469 138.101562 L 158.484375 145.398438 "/>
<path style="fill:none;stroke-width:1.2;stroke-linecap:butt;stroke-linejoin:miter;stroke:rgb(0%,0%,100%);stroke-opacity:1;stroke-miterlimit:10;" d="M 158.484375 145.398438 L 164.492188 152.695312 "/>
<path style="fill:none;stroke-width:1.2;stroke-linecap:butt;stroke-linejoin:miter;stroke:rgb(0%,0%,100%);stroke-opacity:1;stroke-miterlimit:10;" d="M 164.492188 152.695312 L 173.8125 151.144531 "/>
<path style="fill:none;stroke-width:1.2;stroke-linecap:butt;stroke-linejoin:miter;stroke:rgb(0%,0%,0%);stroke-opacity:1;stroke-miterlimit:10;" d="M 173.8125 151.144531 L 183.132812 149.59375 "/>
<path style=" stroke:none;fill-rule:nonzero;fill:rgb(100%,100%,100%);fill-opacity:1;" d="M 157.492188 147.195312 L 171.492188 147.195312 L 171.492188 158.195312 L 157.492188 158.195312 Z M 157.492188 147.195312 "/>
<g style="fill:rgb(0%,0%,100%);fill-opacity:1;">
  <use xlink:href="#glyph0-2" x="157.492188" y="155.858398"/>
  <use xlink:href="#glyph0-3" x="164.469727" y="155.858398"/>
</g>
<path style="fill:none;stroke-width:1.2;stroke-linecap:butt;stroke-linejoin:miter;stroke:rgb(0%,0%,0%);stroke-opacity:1;stroke-miterlimit:10;" d="M 183.132812 149.59375 L 195.140625 164.1875 "/>
<path style="fill:none;stroke-width:1.2;stroke-linecap:butt;stroke-linejoin:miter;stroke:rgb(0%,0%,0%);stroke-opacity:1;stroke-miterlimit:10;" d="M 180.898438 153.878906 L 190.507812 165.550781 "/>
<path style="fill:none;stroke-width:1.2;stroke-linecap:butt;stroke-linejoin:miter;stroke:rgb(0%,0%,0%);stroke-opacity:1;stroke-miterlimit:10;" d="M 195.140625 164.1875 L 213.785156 161.082031 "/>
<path style="fill:none;stroke-width:1.2;stroke-linecap:butt;stroke-linejoin:miter;stroke:rgb(0%,0%,0%);stroke-opacity:1;stroke-miterlimit:10;" d="M 195.140625 164.1875 L 188.507812 181.882812 "/>
<path style="fill:none;stroke-width:1.2;stroke-linecap:butt;stroke-linejoin:miter;stroke:rgb(0%,0%,0%);stroke-opacity:1;stroke-miterlimit:10;" d="M 213.785156 161.082031 L 225.792969 175.675781 "/>
<path style="fill:none;stroke-width:1.2;stroke-linecap:butt;stroke-linejoin:miter;stroke:rgb(0%,0%,0%);stroke-opacity:1;stroke-miterlimit:10;" d="M 220.417969 143.386719 L 213.785156 161.082031 "/>
<path style="fill:none;stroke-width:1.2;stroke-linecap:butt;stroke-linejoin:miter;stroke:rgb(0%,0%,0%);stroke-opacity:1;stroke-miterlimit:10;" d="M 223.917969 146.714844 L 218.613281 160.871094 "/>
<path style="fill:none;stroke-width:1.2;stroke-linecap:butt;stroke-linejoin:miter;stroke:rgb(0%,0%,0%);stroke-opacity:1;stroke-miterlimit:10;" d="M 225.792969 175.675781 L 244.4375 172.570312 "/>
<path style="fill:none;stroke-width:1.2;stroke-linecap:butt;stroke-linejoin:miter;stroke:rgb(0%,0%,0%);stroke-opacity:1;stroke-miterlimit:10;" d="M 226.929688 170.976562 L 241.84375 168.496094 "/>
<path style="fill:none;stroke-width:1.2;stroke-linecap:butt;stroke-linejoin:miter;stroke:rgb(0%,0%,0%);stroke-opacity:1;stroke-miterlimit:10;" d="M 225.792969 175.675781 L 219.160156 193.371094 "/>
<path style="fill:none;stroke-width:1.2;stroke-linecap:butt;stroke-linejoin:miter;stroke:rgb(0%,0%,0%);stroke-opacity:1;stroke-miterlimit:10;" d="M 244.4375 172.570312 L 251.070312 154.875 "/>
<path style="fill:none;stroke-width:1.2;stroke-linecap:butt;stroke-linejoin:miter;stroke:rgb(0%,0%,0%);stroke-opacity:1;stroke-miterlimit:10;" d="M 251.070312 154.875 L 239.0625 140.28125 "/>
<path style="fill:none;stroke-width:1.2;stroke-linecap:butt;stroke-linejoin:miter;stroke:rgb(0%,0%,0%);stroke-opacity:1;stroke-miterlimit:10;" d="M 246.433594 156.242188 L 236.828125 144.566406 "/>
<path style="fill:none;stroke-width:1.2;stroke-linecap:butt;stroke-linejoin:miter;stroke:rgb(0%,0%,0%);stroke-opacity:1;stroke-miterlimit:10;" d="M 239.0625 140.28125 L 220.417969 143.386719 "/>
<path style="fill:none;stroke-width:1.2;stroke-linecap:butt;stroke-linejoin:miter;stroke:rgb(0%,0%,0%);stroke-opacity:1;stroke-miterlimit:10;" d="M 239.0625 140.28125 L 245.695312 122.585938 "/>
<path style="fill:none;stroke-width:1.2;stroke-linecap:butt;stroke-linejoin:miter;stroke:rgb(0%,0%,0%);stroke-opacity:1;stroke-miterlimit:10;" d="M 245.695312 122.585938 L 235.277344 106.816406 "/>
<path style="fill:none;stroke-width:1.2;stroke-linecap:butt;stroke-linejoin:miter;stroke:rgb(0%,0%,0%);stroke-opacity:1;stroke-miterlimit:10;" d="M 263.910156 117.550781 L 245.695312 122.585938 "/>
<path style="fill:none;stroke-width:1.2;stroke-linecap:butt;stroke-linejoin:miter;stroke:rgb(0%,0%,0%);stroke-opacity:1;stroke-miterlimit:10;" d="M 235.277344 106.816406 L 247.054688 92.035156 "/>
<path style="fill:none;stroke-width:1.2;stroke-linecap:butt;stroke-linejoin:miter;stroke:rgb(0%,0%,0%);stroke-opacity:1;stroke-miterlimit:10;" d="M 247.054688 92.035156 L 264.75 98.667969 "/>
<path style="fill:none;stroke-width:1.2;stroke-linecap:butt;stroke-linejoin:miter;stroke:rgb(0%,0%,0%);stroke-opacity:1;stroke-miterlimit:10;" d="M 264.75 98.667969 L 263.910156 117.550781 "/>
<path style="fill:none;stroke-width:1.2;stroke-linecap:butt;stroke-linejoin:miter;stroke:rgb(0%,0%,0%);stroke-opacity:1;stroke-miterlimit:10;" d="M 217.445312 194.785156 L 223.449219 202.082031 "/>
<path style="fill:none;stroke-width:1.2;stroke-linecap:butt;stroke-linejoin:miter;stroke:rgb(100%,0%,0%);stroke-opacity:1;stroke-miterlimit:10;" d="M 223.449219 202.082031 L 229.453125 209.378906 "/>
<path style="fill:none;stroke-width:1.2;stroke-linecap:butt;stroke-linejoin:miter;stroke:rgb(0%,0%,0%);stroke-opacity:1;stroke-miterlimit:10;" d="M 220.878906 191.957031 L 226.882812 199.253906 "/>
<path style="fill:none;stroke-width:1.2;stroke-linecap:butt;stroke-linejoin:miter;stroke:rgb(100%,0%,0%);stroke-opacity:1;stroke-miterlimit:10;" d="M 226.882812 199.253906 L 232.886719 206.550781 "/>
<path style="fill:none;stroke-width:1.2;stroke-linecap:butt;stroke-linejoin:miter;stroke:rgb(0%,0%,0%);stroke-opacity:1;stroke-miterlimit:10;" d="M 219.160156 193.371094 L 209.839844 194.921875 "/>
<path style="fill:none;stroke-width:1.2;stroke-linecap:butt;stroke-linejoin:miter;stroke:rgb(0%,0%,100%);stroke-opacity:1;stroke-miterlimit:10;" d="M 209.839844 194.921875 L 200.519531 196.476562 "/>
<path style=" stroke:none;fill-rule:nonzero;fill:rgb(100%,100%,100%);fill-opacity:1;" d="M 227.167969 202.464844 L 235.167969 202.464844 L 235.167969 213.464844 L 227.167969 213.464844 Z M 227.167969 202.464844 "/>
<g style="fill:rgb(100%,0%,0%);fill-opacity:1;">
  <use xlink:href="#glyph0-1" x="227.167969" y="211.12793"/>
</g>
<path style="fill:none;stroke-width:1.2;stroke-linecap:butt;stroke-linejoin:miter;stroke:rgb(0%,0%,100%);stroke-opacity:1;stroke-miterlimit:10;" d="M 200.519531 196.476562 L 194.511719 189.179688 "/>
<path style="fill:none;stroke-width:1.2;stroke-linecap:butt;stroke-linejoin:miter;stroke:rgb(0%,0%,0%);stroke-opacity:1;stroke-miterlimit:10;" d="M 194.511719 189.179688 L 188.507812 181.882812 "/>
<path style=" stroke:none;fill-rule:nonzero;fill:rgb(100%,100%,100%);fill-opacity:1;" d="M 193.519531 190.976562 L 207.519531 190.976562 L 207.519531 201.976562 L 193.519531 201.976562 Z M 193.519531 190.976562 "/>
<g style="fill:rgb(0%,0%,100%);fill-opacity:1;">
  <use xlink:href="#glyph0-2" x="193.519531" y="199.639648"/>
  <use xlink:href="#glyph0-3" x="200.49707" y="199.639648"/>
</g>
<path style="fill:none;stroke-width:1.2;stroke-linecap:butt;stroke-linejoin:miter;stroke:rgb(0%,0%,0%);stroke-opacity:1;stroke-miterlimit:10;" d="M 188.144531 179.6875 L 178.824219 181.242188 "/>
<path style="fill:none;stroke-width:1.2;stroke-linecap:butt;stroke-linejoin:miter;stroke:rgb(100%,0%,0%);stroke-opacity:1;stroke-miterlimit:10;" d="M 178.824219 181.242188 L 169.5 182.792969 "/>
<path style="fill:none;stroke-width:1.2;stroke-linecap:butt;stroke-linejoin:miter;stroke:rgb(0%,0%,0%);stroke-opacity:1;stroke-miterlimit:10;" d="M 188.875 184.074219 L 179.550781 185.628906 "/>
<path style="fill:none;stroke-width:1.2;stroke-linecap:butt;stroke-linejoin:miter;stroke:rgb(100%,0%,0%);stroke-opacity:1;stroke-miterlimit:10;" d="M 179.550781 185.628906 L 170.230469 187.179688 "/>
<path style=" stroke:none;fill-rule:nonzero;fill:rgb(100%,100%,100%);fill-opacity:1;" d="M 161.867188 179.484375 L 169.867188 179.484375 L 169.867188 190.484375 L 161.867188 190.484375 Z M 161.867188 179.484375 "/>
<g style="fill:rgb(100%,0%,0%);fill-opacity:1;">
  <use xlink:href="#glyph0-1" x="161.867188" y="188.147461"/>
</g>
</g>
</svg>

<svg xmlns="http://www.w3.org/2000/svg" xmlns:xlink="http://www.w3.org/1999/xlink" width="300pt" height="300pt" viewBox="0 0 300 300"><defs><symbol overflow="visible"><path d="M.453 1.594v-7.938h4.5v7.938zm.5-.5h3.5v-6.938h-3.5zm0 0"/></symbol><symbol overflow="visible" id="a"><path d="M3.547-5.953c-.65 0-1.164.242-1.547.72-.375.48-.563 1.13-.563 1.952 0 .835.188 1.49.563 1.967.383.48.898.72 1.547.72.644 0 1.156-.24 1.53-.72.376-.476.564-1.132.564-1.968 0-.822-.187-1.474-.562-1.954-.375-.477-.887-.72-1.53-.72zm0-.734c.914 0 1.648.312 2.203.937.55.617.828 1.438.828 2.47 0 1.042-.277 1.87-.828 2.483-.555.617-1.29.922-2.203.922-.93 0-1.668-.305-2.22-.922C.774-1.41.5-2.237.5-3.28c0-1.033.273-1.853.828-2.47.55-.625 1.29-.938 2.22-.938zm0 0"/></symbol><symbol overflow="visible" id="b"><path d="M.89-6.563H2.08l2.906 5.485v-5.484h.86V0H4.656L1.75-5.484V0H.89zm0 0"/></symbol><symbol overflow="visible" id="c"><path d="M.89-6.563h.876v2.688H5v-2.688h.89V0H5v-3.125H1.766V0H.89zm0 0"/></symbol></defs><g><path fill="#fff" d="M0 0h300v300H0z"/><path d="M77.91 150.52l-6.004-7.297" stroke-width="1.2" stroke="#f00" stroke-miterlimit="10" fill="none"/><path d="M71.906 143.223l-6.004-7.297" stroke-width="1.2" stroke="#000" stroke-miterlimit="10" fill="none"/><path d="M77.91 150.52l9.32-1.555" stroke-width="1.2" stroke="#f00" stroke-miterlimit="10" fill="none"/><path d="M87.23 148.965l9.325-1.55" stroke-width="1.2" stroke="#000" stroke-miterlimit="10" fill="none"/><path d="M73.91 145.02h8v11h-8zm0 0" fill="#fff"/><use xlink:href="#a" x="73.91" y="153.683" fill="#f00"/><path d="M65.902 135.926l-18.644 3.1M47.258 139.027l-12.008-14.59M96.555 147.414l6.632-17.695M101.38 147.207l5.308-14.16M108.563 162.008l-12.008-14.594M103.188 129.72l9.32-1.556" stroke-width="1.2" stroke="#000" stroke-miterlimit="10" fill="none"/><path d="M112.508 128.164l9.32-1.55M121.828 126.613l6.008 7.297" stroke-width="1.2" stroke="#00f" stroke-miterlimit="10" fill="none"/><path d="M127.836 133.91l6.004 7.297" stroke-width="1.2" stroke="#000" stroke-miterlimit="10" fill="none"/><path d="M119.598 130.898l4.8 5.836" stroke-width="1.2" stroke="#00f" stroke-miterlimit="10" fill="none"/><path d="M124.398 136.734l4.805 5.84" stroke-width="1.2" stroke="#000" stroke-miterlimit="10" fill="none"/><path d="M118.828 121.113h7v11h-7zm0 0" fill="#fff"/><use xlink:href="#b" x="118.828" y="129.776" fill="#00f"/><path d="M133.84 141.207l-6.633 17.695M133.84 141.207l18.64-3.105M127.207 158.902l-18.644 3.106M124.61 154.828l-14.915 2.484M108.563 162.008l-3.317 8.847" stroke-width="1.2" stroke="#000" stroke-miterlimit="10" fill="none"/><path d="M105.246 170.855l-3.316 8.848" stroke-width="1.2" stroke="#f00" stroke-miterlimit="10" fill="none"/><path d="M86.93 174.203h15v11h-15zm0 0" fill="#fff"/><g fill="#f00"><use xlink:href="#c" x="86.93" y="182.866"/><use xlink:href="#a" x="93.944" y="182.866"/></g><path d="M152.48 138.102l6.004 7.296" stroke-width="1.2" stroke="#000" stroke-miterlimit="10" fill="none"/><path d="M158.484 145.398l6.008 7.297M164.492 152.695l9.32-1.55" stroke-width="1.2" stroke="#00f" stroke-miterlimit="10" fill="none"/><path d="M173.813 151.145l9.32-1.55" stroke-width="1.2" stroke="#000" stroke-miterlimit="10" fill="none"/><path d="M157.492 147.195h14v11h-14zm0 0" fill="#fff"/><g fill="#00f"><use xlink:href="#b" x="157.492" y="155.858"/><use xlink:href="#c" x="164.47" y="155.858"/></g><path d="M183.133 149.594l12.008 14.594M180.898 153.88l9.61 11.67M195.14 164.188l18.645-3.106M195.14 164.188l-6.632 17.695M213.785 161.082l12.008 14.594M220.418 143.387l-6.633 17.695M223.918 146.715l-5.305 14.156M225.793 175.676l18.644-3.106M226.93 170.977l14.914-2.48M225.793 175.676l-6.633 17.695M244.438 172.57l6.632-17.695M251.07 154.875l-12.007-14.594M246.434 156.242l-9.606-11.676M239.063 140.28l-18.645 3.107M239.063 140.28l6.632-17.694M245.695 122.586l-10.418-15.77M263.91 117.55l-18.215 5.036M235.277 106.816l11.778-14.78M247.055 92.035l17.695 6.633M264.75 98.668l-.84 18.883M217.445 194.785l6.004 7.297" stroke-width="1.2" stroke="#000" stroke-miterlimit="10" fill="none"/><path d="M223.45 202.082l6.003 7.297" stroke-width="1.2" stroke="#f00" stroke-miterlimit="10" fill="none"/><path d="M220.88 191.957l6.003 7.297" stroke-width="1.2" stroke="#000" stroke-miterlimit="10" fill="none"/><path d="M226.883 199.254l6.004 7.297" stroke-width="1.2" stroke="#f00" stroke-miterlimit="10" fill="none"/><path d="M219.16 193.37l-9.32 1.552" stroke-width="1.2" stroke="#000" stroke-miterlimit="10" fill="none"/><path d="M209.84 194.922l-9.32 1.555" stroke-width="1.2" stroke="#00f" stroke-miterlimit="10" fill="none"/><path d="M227.168 202.465h8v11h-8zm0 0" fill="#fff"/><use xlink:href="#a" x="227.168" y="211.128" fill="#f00"/><path d="M200.52 196.477l-6.008-7.297" stroke-width="1.2" stroke="#00f" stroke-miterlimit="10" fill="none"/><path d="M194.512 189.18l-6.004-7.297" stroke-width="1.2" stroke="#000" stroke-miterlimit="10" fill="none"/><path d="M193.52 190.977h14v11h-14zm0 0" fill="#fff"/><g fill="#00f"><use xlink:href="#b" x="193.52" y="199.64"/><use xlink:href="#c" x="200.497" y="199.64"/></g><path d="M188.145 179.688l-9.32 1.554" stroke-width="1.2" stroke="#000" stroke-miterlimit="10" fill="none"/><path d="M178.824 181.242l-9.324 1.55" stroke-width="1.2" stroke="#f00" stroke-miterlimit="10" fill="none"/><path d="M188.875 184.074l-9.324 1.555" stroke-width="1.2" stroke="#000" stroke-miterlimit="10" fill="none"/><path d="M179.55 185.63l-9.32 1.55" stroke-width="1.2" stroke="#f00" stroke-miterlimit="10" fill="none"/><path d="M161.867 179.484h8v11h-8zm0 0" fill="#fff"/><use xlink:href="#a" x="161.867" y="188.147" fill="#f00"/></g></svg>
